T: Spurlock's Half-Century
M: 4/4
L: 1/8
K: Gmaj
B,3 C DGFG|BGdG eGdG|cdcB ABAG|FD~D2 FGAc|
BG~G2 DGCG|B,GGF GABd|cBce dBB2|1Addc BGG2:|2Addc BGBd||
gbgd BG~G2|DGBd BGAB|ceab a3g|fdad bdad|
gd~d2 bg~g2|dB~B2 GABG|cBce dBB2|1Addc BGBd:|2Addc BGG2||
